X:1
T: Betty Washington
C:J. Scott Skinner
R:Strathspey
Q:128
K:D
M:4/4
L:1/16
|:A,D3 F3D G3E A4|BG3 c3A d3B e4|fd3 A3=c B3d G3B|A3F D3B, CE3 E4|
A,D3 F3D G3E A4|BG3 c3A d3B e4|fd3 A3=c B3d G3B|E3G CA3 FD3 D2g2|
f3e d3c B3^d e3f|g3f e3d c3e a3g|f3e d3c Bd3 G3B|((3E2A2c2) ((3d2B2e2) cA3 A3g|
f3e d3c B3^d e3f|g3f e3d ce3 A3=c|((3B2G2B2) ((3c2A2c2) ((3d2B2d2) ((3A2F2D2)|EFG2 CA3 FD3 D4:|
